resources/svg/battery-charge-o.svg

<svg xmlns="http://www.w3.org/2000/svg" viewBox="0 0 15 15" fill="none"><path d="M12.5 11.5H12H12.5ZM11.5 12.5V13V12.5ZM11.5 2.5V2V2.5ZM12.5 3.5H13H12.5ZM0.5 3.5H0H0.5ZM1.5 2.5V3V2.5ZM0.5 11.5H1H0.5ZM1.5 12.5V12V12.5ZM6.5 9.5L6.27639 9.94721C6.43139 10.0247 6.61546 10.0164 6.76287 9.92533C6.91027 9.83422 7 9.67329 7 9.5H6.5ZM6.5 5.5L6.72361 5.05279C6.56861 4.97529 6.38454 4.98357 6.23713 5.07467C6.08973 5.16578 6 5.32671 6 5.5H6.5ZM1 11.5L1 3.5H0L3.57628e-07 11.5H1ZM1.5 3L11.5 3V2L1.5 2V3ZM12 3.5V11.5H13V3.5H12ZM11.5 12H1.5V13H11.5V12ZM12 11.5C12 11.7761 11.7761 12 11.5 12V13C12.3284 13 13 12.3284 13 11.5H12ZM11.5 3C11.7761 3 12 3.22386 12 3.5H13C13 2.67157 12.3284 2 11.5 2V3ZM1 3.5C1 3.22386 1.22386 3 1.5 3V2C0.671573 2 -5.96046e-08 2.67157 0 3.5H1ZM3.57628e-07 11.5C3.8743e-07 12.3284 0.671573 13 1.5 13V12C1.22386 12 1 11.7761 1 11.5H3.57628e-07ZM15 10L15 5H14L14 10H15ZM2.27639 7.94721L6.27639 9.94721L6.72361 9.05279L2.72361 7.05279L2.27639 7.94721ZM7 9.5V5.5H6V9.5H7ZM6.27639 5.94721L10.2764 7.94721L10.7236 7.05279L6.72361 5.05279L6.27639 5.94721Z" fill="black"/></svg>

<svg xmlns="http://www.w3.org/2000/svg" viewBox="0 0 15 15" fill="none"><path d="M12.5 11.5H12h.5zm-1 1v.5-.5zm0-10V2v.5zm1 1h.5-.5zm-12 0H0h.5zm1-1V3v-.5zm-1 9H1 .5zm1 1V12v.5zm5-3l-.224.447A.5.5 0 007 9.5h-.5zm0-4l.224-.447A.5.5 0 006 5.5h.5zm-5.5 6v-8H0v8h1zM1.5 3h10V2h-10v1zm10.5.5v8h1v-8h-1zm-.5 8.5h-10v1h10v-1zm.5-.5a.5.5 0 01-.5.5v1a1.5 1.5 0 001.5-1.5h-1zM11.5 3a.5.5 0 01.5.5h1A1.5 1.5 0 0011.5 2v1zM1 3.5a.5.5 0 01.5-.5V2A1.5 1.5 0 000 3.5h1zm-1 8A1.5 1.5 0 001.5 13v-1a.5.5 0 01-.5-.5H0zM15 10V5h-1v5h1zM2.276 7.947l4 2 .448-.894-4-2-.448.894zM7 9.5v-4H6v4h1zm-.724-3.553l4 2 .448-.894-4-2-.448.894z" fill="currentColor"/></svg>
